X:175
T: Sheep on the Mountains
T: Caoirigh ar na Sl\'eibhte
S: B.Breathnach: "Ceol Rince na hEireann" II/41
Z: B.Black
N: Parts not repeated
L: 1/8
M: 6/8
R: jig
K: G
FFF G3|AdB cAG|AGA dcd|ABc d3|
F3 GGG|AdB cAF|GFG AFD|GFE D2 ||
d|gf/e/d efg|afd cAG|AGA dcd|ABc d2e|
fef gfg|afd cAF|GFG AFD|GFE D3 ||

